X: 8865
T: Cullen Skink
R: reel
M: 4/4
K: Cmajor
G|:c2 GFEc GE|FDdc Bdgf|ecGE fdBG|ecGB c2 c2:|
|:GEcG AFFA|Gceg fddf|ecGc fdBd|ecGB c2 c2:|
|:gagf ecce|dedc BGGf|gagf ecce|fAdB c2 c2:|
|:GFEG cGGc|AFGE FDDF|EFGE CEG,E|B,CDB, C2 C2:|
|:C2 ECG,C EC|FDB,D G,DB,D|CEGc AFDF|EGFD EC C2:|
c2 ecGc ec|fdBd fdgf|ecGc ecgc|BGdB cGEG|
c2 ecGc ec|fdBd fdgf|ecGc ecgc|BGdB c2 c2|

